!!!COM:	Martini, Johannes
!!!CDT:	~1440///-~1497//
!!!OTL:	Cum invocarem
!!!AGN:	Motet
!!!SCT:	Mar2018
!!!SCA:	Mar2018
!!!voices:	3
**kern	**kern	**kern
*staff3	*staff2	*staff1
*Ivox	*Ivox	*Ivox
*I"Tenor	*I"Faulx bourdon	*I"Superius
*I'T	*I'Fb	*I'S
*>[A,B,C,D,E,F,G,H,I,J]	*>[A,B,C,D,E,F,G,H,I,J]	*>[A,B,C,D,E,F,G,H,I,J]
*>A	*>A	*>A
*clefGv2	*clefGv2	*clefG2
*k[]	*k[]	*k[]
*M2/1	*M2/1	*M2/1
*met(C)	*met(C)	*met(C)
=1-	=1-	=1-
!!LO:TX:Z=8:t=Choir 1
!!section: In tribulatione
!!!OMD: In tribulatione
1c	1g	1cc
2e\	2g\	2cc\
2e\	2g\	2cc\
=2	=2	=2
2e\	2g\	2cc\
2e\	2g\	2cc\
1e	1g	1cc
=3	=3	=3
1d	1f	1b
2c\	2e\	2a/
2e\	2g\	2cc\
=4	=4	=4
2d\	2f\	2b\
1c	1e	1a
2B\	[2d\	[2g/
=5	=5	=5
1A	2d\]	2g/]
.	2c\	2f#i/
1Gl	1dl	1gl
=6||	=6||	=6||
*>B	*>B	*>B
!!section: Miserere mei
!!!OMD: Miserere mei
!!LO:TX:Z=8:t=Choir 2
1G	0r	1g
2c\	.	2a/
2d\	.	2b\
=7	=7	=7
2B\	0r	2g/
2c\	.	1cc
1d	.	.
.	.	2b\
=8	=8	=8
1c	0r	1cc
1r	.	1r
=9	=9	=9
1e	0r	1cc
2e\	.	2cc\
2e\	.	2cc\
=10	=10	=10
1e	0r	1cc
2d\	.	2b\
2c\	.	2a/
=11	=11	=11
2d\	0r	2b\
1e	.	1cc
4d\	.	4b\
4c\	.	4a/
=12	=12	=12
2B\	0r	2g/
1c	.	1a
2B\	.	[2g/
=13	=13	=13
1A	0r	2g/]
.	.	2f#i/
1Gl	.	1gl
=14||	=14||	=14||
*>C	*>C	*>C
!!LO:TX:Z=8:t=Choir 1
!!section: Filii hominum
!!!OMD: Filii hominum
1G	1d	1g
2c\	2e\	2a/
2d\	2f\	2b\
=15	=15	=15
2B\	2d\	2g/
2c\	1g	1cc
1d	.	.
.	2f\	2b\
=16	=16	=16
1c	1g	1cc
2e\	2g\	2cc\
2e\	2g\	2cc\
=17	=17	=17
1e	1g	1cc
1d	1f	1b
=18	=18	=18
2e\	2g\	2cc\
2.f\	2.a\	2.dd\
4e\	4g\	4cc\
4d\	4f\	4b\
4c\	4e\	4a/
=19	=19	=19
1d	1f	1b
1c	1g	1cc
=20	=20	=20
1r	1r	1r
1c	1g	1cc
=21	=21	=21
2e\	2g\	2cc\
2e\	2g\	2cc\
2e\	2g\	2cc\
2e\	2g\	2cc\
=22	=22	=22
1e	1g	1cc
2d\	2f\	2b\
2c\	2e\	2a/
=23	=23	=23
1d	1f	1b
1e	1g	1cc
=24	=24	=24
1c	2r	2r
.	2g\	2cc\
2e\	2g\	2cc\
2e\	2g\	2cc\
=25	=25	=25
1e	1g	1cc
[1d	[1f	[1b
=26	=26	=26
2d\]	2f\]	2b\]
1e	1g	1cc
4d\	4f\	4b\
4c\	4e\	4a/
=27	=27	=27
2B\	2d\	2g/
1c	1e	1a
2B\	[2d\	[2g/
=28	=28	=28
1A	2d\]	2g/]
.	2c\	2f#i/
1Gl	1dl	1gl
=29||	=29||	=29||
*>D	*>D	*>D
!!section: Scitote quoniam
!!!OMD: Scitote quoniam
!!LO:TX:Z=8:t=Choir 2
2e\	0r	2cc\
2e\	.	2cc\
1e	.	1cc
=30	=30	=30
2e\	0r	2cc\
2e\	.	2cc\
1e	.	1cc
=31	=31	=31
1e	0r	1cc
2e\	.	2cc\
2e\	.	2cc\
=32	=32	=32
2e\	0r	2cc\
2e\	.	2cc\
2e\	.	2cc\
2e\	.	2cc\
=33	=33	=33
1e	0r	1cc
2d\	.	2b\
2c\	.	2a/
=34	=34	=34
1d	0r	1b
1c	.	1cc
=35	=35	=35
1r	0r	1r
2e\	.	2cc\
2e\	.	2cc\
=36	=36	=36
1e	0r	1cc
2e\	.	2cc\
2e\	.	2cc\
=37	=37	=37
2e\	0r	2cc\
2e\	.	2cc\
1e	.	1cc
=38	=38	=38
1e	0r	1cc
2d\	.	2b\
2c\	.	2a/
=39	=39	=39
2B\	0r	2g/
1c	.	1a
2B\	.	[2g/
=40	=40	=40
1A	0r	2g/]
.	.	2f#i/
1Gl	.	1gl
=41||	=41||	=41||
*>E	*>E	*>E
!!LO:TX:Z=8:t=Choir 1
!!section: Irascimini, et nolite
!!!OMD: Irascimini, et nolite
2e\	2g\	2cc\
2e\	2g\	2cc\
2e\	2g\	2cc\
2e\	2g\	2cc\
=42	=42	=42
1e	1g	1cc
1e	1g	1cc
=43	=43	=43
2e\	2g\	2cc\
2e\	2g\	2cc\
1e	1g	1cc
=44	=44	=44
2e\	2g\	2cc\
1f	1a	1dd
2e\	[2g\	[2cc\
=45	=45	=45
1d	2g\]	2cc\]
.	2f\	2b\
1c	1g	1cc
=46	=46	=46
1r	1r	1r
1c	1g	1cc
=47	=47	=47
2e\	2g\	2cc\
2e\	2g\	2cc\
1e	1g	1cc
=48	=48	=48
1e	1g	1cc
2e\	2g\	2cc\
[2d\	[2f\	[2b\
=49	=49	=49
2d\]	2f\]	2b\]
2c\	1e	1a
1B	.	.
.	2d\	2g#i/
=50	=50	=50
1A	1e	1a
1e	2r	2r
.	2g\	2cc\
=51	=51	=51
2e\	2g\	2cc\
2e\	2g\	2cc\
2e\	2g\	2cc\
2e\	2g\	2cc\
=52	=52	=52
1e	1g	1cc
1d	1f	1b
=53	=53	=53
2c\	2e\	2a/
2e\	2g\	2cc\
2d\	2f\	2b\
[2c\	[2e\	[2a/
=54	=54	=54
2c\]	2e\]	2a/]
2B\	1d	1g
1A	.	.
.	2c\	2f#i/
=55	=55	=55
0Gl	0dl	0gl
=56||	=56||	=56||
*>F	*>F	*>F
!!section: Sacrificate sacrificium
!!!OMD: Sacrificate sacrificium
!!LO:TX:Z=8:t=Choir 2
2e\	0r	2cc\
2e\	.	2cc\
2e\	.	2cc\
2e\	.	2cc\
=57	=57	=57
1e	0r	1cc
2e\	.	2cc\
2e\	.	2cc\
=58	=58	=58
2e\	0r	2cc\
2e\	.	2cc\
1e	.	1cc
=59	=59	=59
1e	0r	1cc
2e\	.	2cc\
2e\	.	2cc\
=60	=60	=60
1c	0r	1cc
1r	.	1r
=61	=61	=61
1e	0r	1cc
2e\	.	2cc\
2e\	.	2cc\
=62	=62	=62
1e	0r	1cc
2d\	.	2b\
2c\	.	2a/
=63	=63	=63
1d	0r	1b
1c	.	1cc
=64	=64	=64
1r	0r	1r
2e\	.	2cc\
2e\	.	2cc\
=65	=65	=65
2e\	0r	2cc\
1e	.	1cc
2e\	.	2cc\
=66	=66	=66
2e\	0r	2cc\
2e\	.	2cc\
1e	.	1cc
=67	=67	=67
2d\	0r	2b\
1e	.	1cc
4d\	.	4b\
4c\	.	4a/
=68	=68	=68
2B\	0r	2g/
1c	.	1a
2B\	.	[2g/
=69	=69	=69
1A	0r	2g/]
.	.	2f#i/
1Gl	.	1gl
=70||	=70||	=70||
*>G	*>G	*>G
!!LO:TX:Z=8:t=Choir 1
!!section: Signatum est
!!!OMD: Signatum est
1c	1g	1cc
2e\	2g\	2cc\
2e\	2g\	2cc\
=71	=71	=71
1e	1g	1cc
2e\	2g\	2cc\
2e\	2g\	2cc\
=72	=72	=72
1e	1g	1cc
2e\	2g\	2cc\
2e\	2g\	2cc\
=73	=73	=73
2e\	2g\	2cc\
2d\	2f\	2b\
2e\	2g\	2cc\
[2f\	[2a\	[2dd\
=74	=74	=74
2f\]	2a\]	2dd\]
2e\	1g	1cc
1d	.	.
.	2f\	2b\
=75	=75	=75
1c	1g	1cc
1r	1r	1r
=76	=76	=76
2e\	2g\	2cc\
2e\	2g\	2cc\
2e\	2g\	2cc\
2e\	2g\	2cc\
=77	=77	=77
2e\	2g\	2cc\
2e\	2g\	2cc\
1e	1g	1cc
=78	=78	=78
1d	1f	1b
[1c	[1e	[1a
=79	=79	=79
2c\]	2e\]	2a/]
1d	1f	1b
4c\	4e\	4a/
4B\	4d\	4g/
=80	=80	=80
2A/	2c\	2f#i/
2G/	1d	1g
1A	.	.
.	2c\	2f#i/
=81	=81	=81
0Gl	0dl	0gl
=82||	=82||	=82||
*>H	*>H	*>H
!!section: A fructu frumenti
!!!OMD: A fructu frumenti
!!LO:TX:Z=8:t=Choir 2
1G	0r	1g
2c\	.	2a/
2d\	.	2b\
=83	=83	=83
2B\	0r	2g/
2c\	.	1cc
1d	.	.
.	.	2b\
=84	=84	=84
1c	0r	1cc
2e\	.	2cc\
2e\	.	2cc\
=85	=85	=85
1e	0r	1cc
1e	.	1cc
=86	=86	=86
2e\	0r	2cc\
2e\	.	2cc\
2e\	.	2cc\
2e\	.	2cc\
=87	=87	=87
1e	0r	1cc
1f	.	1dd
=88	=88	=88
1c	0r	1cc
1r	.	1r
=89	=89	=89
1e	0r	1cc
2d\	.	2b\
[2e\	.	[2cc\
=90	=90	=90
2e\]	0r	2cc\]
4d\	.	4b\
4c\	.	4a/
2B\	.	2g/
[2c\	.	[2a/
=91	=91	=91
2c\]	0r	2a/]
2B\	.	1g
1A	.	.
.	.	2f#i/
=92	=92	=92
0Gl	0r	0gl
=93||	=93||	=93||
*>I	*>I	*>I
!!section: In pace in idipsum
!!!OMD: In pace in idipsum
!!LO:TX:Z=8:t=Choir 1
1e	1g	1cc
1e	1g	1cc
=94	=94	=94
1e	1g	1cc
1d	1f	1b
=95	=95	=95
2e\	2g\	2cc\
1f	1a	1dd
2e\	[2g\	[2cc\
=96	=96	=96
1d	2g\]	2cc\]
.	2f\	2b\
1c	1g	1cc
=97	=97	=97
1r	1r	1r
2e\	2g\	2cc\
2e\	2g\	2cc\
=98	=98	=98
1e	1g	1cc
1d	1f	1b
=99	=99	=99
1c	1e	1a
2d\	2f\	2b\
[2e\	[2g\	[2cc\
=100	=100	=100
2e\]	2g\]	2cc\]
4d\	4f\	4b\
4c\	4e\	4a/
2B\	2d\	2g/
[2c\	[2e\	[2a/
=101	=101	=101
2c\]	2e\]	2a/]
2B\	1d	1g
1A	.	.
.	2c\	2f#i/
=102	=102	=102
0Gl	0dl	0gl
=103||	=103||	=103||
*>J	*>J	*>J
2e\	0r	2cc\
2e\	.	2cc\
2e\	.	2cc\
[2e\	.	[2cc\
=104	=104	=104
2e\]	0r	2cc\]
1e	.	1cc
2e\	.	2cc\
=105	=105	=105
1c	0r	1cc
1r	.	1r
=106	=106	=106
2e\	0r	2cc\
2e\	.	2cc\
2e\	.	2cc\
2e\	.	2cc\
=107	=107	=107
1e	0r	1cc
1d	.	1b
=108	=108	=108
1e	0r	1cc
2d\	.	2b\
2c\	.	2a/
=109	=109	=109
2d\	0r	2b\
1e	.	1cc
2d\	.	[2b\
=110	=110	=110
1c	0r	2b\]
.	.	2a/
1Bl	.	1bl
==	==	==
*-	*-	*-
!!!RDF**kern: l=long note in original notation
!!!RDF**kern: i=editorial accidental
!!!ENC:	Chris Gage 03-25-2014
!!!END:	2014/10/07/
!!!EED:	Jesse Rodin
!!!EEV:	2014/10/16/
!!!ONB:	Translated from MusicXML and edited on 2014/10/16/ by Craig Sapp
!!muse2ps: C^@{COM}^i2I150v85,85,150Q16
